images/comunidade-0937.svg

<?xml version="1.0" encoding="UTF-8" standalone="no"?>
<svg
   xmlns:dc="http://purl.org/dc/elements/1.1/"
   xmlns:cc="http://creativecommons.org/ns#"
   xmlns:rdf="http://www.w3.org/1999/02/22-rdf-syntax-ns#"
   xmlns:svg="http://www.w3.org/2000/svg"
   xmlns="http://www.w3.org/2000/svg"
   xmlns:sodipodi="http://sodipodi.sourceforge.net/DTD/sodipodi-0.dtd"
   xmlns:inkscape="http://www.inkscape.org/namespaces/inkscape"
   inkscape:version="1.0 (4035a4f, 2020-05-01)"
   sodipodi:docname="comunidade-0937.svg"
   id="svg8523"
   version="1.1"
   viewBox="0 0 500 500"
   height="500"
   width="500">
  <sodipodi:namedview
     inkscape:snap-smooth-nodes="true"
     inkscape:object-paths="true"
     inkscape:snap-intersection-paths="true"
     inkscape:snap-page="true"
     inkscape:snap-bbox-midpoints="true"
     inkscape:snap-bbox-edge-midpoints="true"
     inkscape:bbox-nodes="true"
     inkscape:snap-bbox="true"
     inkscape:current-layer="svg8523"
     inkscape:window-maximized="1"
     inkscape:window-y="23"
     inkscape:window-x="0"
     inkscape:cy="386.41829"
     inkscape:cx="-203.61531"
     inkscape:zoom="0.43189398"
     showgrid="false"
     id="namedview843"
     inkscape:window-height="855"
     inkscape:window-width="1440"
     inkscape:pageshadow="2"
     inkscape:pageopacity="0"
     guidetolerance="10"
     gridtolerance="10"
     objecttolerance="10"
     borderopacity="1"
     bordercolor="#666666"
     pagecolor="#ffffff" />
  <metadata
     id="metadata8529">
    <rdf:RDF>
      <cc:Work
         rdf:about="">
        <dc:format>image/svg+xml</dc:format>
        <dc:type
           rdf:resource="http://purl.org/dc/dcmitype/StillImage" />
        <dc:title></dc:title>
      </cc:Work>
    </rdf:RDF>
  </metadata>
  <defs
     id="defs8527" />
  <path
     d="M 249.53906 0 A 250.06137 250.06137 0 0 0 0 250.06055 A 250.06137 250.06137 0 0 0 172.19922 487.69141 L 22.744141 311.14648 L 138.58984 117.75977 L 276.23633 51.373047 L 477.37891 288.97656 L 368.89062 470.08398 A 250.06137 250.06137 0 0 0 500.12305 250.06055 A 250.06137 250.06137 0 0 0 250.06055 0 A 250.06137 250.06137 0 0 0 249.53906 0 z M 294.73047 103.89844 L 294.64258 103.94727 A 49.48535 31.06794 64.054884 0 1 294.74023 103.9082 L 294.73047 103.89844 z M 294.16602 104.17969 L 276.52344 112.6875 L 276.53125 112.69922 A 49.48535 31.06794 64.054884 0 0 271.83789 115.68555 L 271.83984 115.6875 A 49.48535 31.06794 64.054884 0 0 271.32812 116.13672 A 49.48535 31.06794 64.054884 0 0 271.21484 116.24414 L 271.20898 116.23633 A 49.48535 31.06794 64.054884 0 0 267.0918 121.36719 A 49.48535 31.06794 64.054884 0 0 280.04883 186.83203 A 49.48535 31.06794 64.054884 0 0 318.88672 202.11133 L 318.89453 202.12109 L 319.00586 202.06641 A 49.48535 31.06794 64.054884 0 0 319.06836 202.03906 L 337.10547 193.33789 L 337.09766 193.32812 A 49.48535 31.06794 64.054884 0 1 298.25781 178.05078 A 49.48535 31.06794 64.054884 0 1 285.30078 112.58398 A 49.48535 31.06794 64.054884 0 1 294.16602 104.17969 z M 235.86914 201.99805 L 235.79102 202.03906 L 235.79492 202.03906 A 49.48535 31.06794 64.054884 0 1 235.87695 202.00781 L 235.86914 201.99805 z M 235.26172 202.29297 L 217.66016 210.7832 L 217.66797 210.79492 A 49.48535 31.06794 64.054884 0 0 212.97656 213.78125 A 49.48535 31.06794 64.054884 0 1 212.97461 213.78125 A 49.48535 31.06794 64.054884 0 0 212.46484 214.23242 A 49.48535 31.06794 64.054884 0 0 212.35352 214.33984 L 212.34766 214.33398 A 49.48535 31.06794 64.054884 0 0 208.22852 219.46094 A 49.48535 31.06794 64.054884 0 0 221.18359 284.92773 A 49.48535 31.06794 64.054884 0 0 260.02344 300.20703 L 260.03125 300.2168 L 260.14062 300.16016 A 49.48535 31.06794 64.054884 0 0 260.20508 300.13281 L 278.24219 291.43359 L 278.23438 291.42383 A 49.48535 31.06794 64.054884 0 1 239.39258 276.14453 A 49.48535 31.06794 64.054884 0 1 226.4375 210.67773 A 49.48535 31.06794 64.054884 0 1 235.26172 202.29297 z M 396.78711 224.0293 L 396.67383 224.08594 A 49.48535 31.06794 64.054884 0 1 396.79492 224.03906 L 396.78711 224.0293 z M 396.20508 224.30859 L 378.57617 232.81055 L 378.58203 232.82031 A 49.48535 31.06794 64.054884 0 0 373.89258 235.80469 L 373.88477 235.81055 L 373.88672 235.80469 A 49.48535 31.06794 64.054884 0 0 373.37305 236.25586 A 49.48535 31.06794 64.054884 0 0 373.26172 236.36133 A 49.48535 31.06794 64.054884 0 0 369.14453 241.49219 A 49.48535 31.06794 64.054884 0 0 382.09961 306.95703 A 49.48535 31.06794 64.054884 0 0 420.93945 322.23633 L 420.94531 322.24609 L 421.05859 322.19141 A 49.48535 31.06794 64.054884 0 0 421.12109 322.16211 L 439.1582 313.46094 L 439.15039 313.45312 A 49.48535 31.06794 64.054884 0 1 400.31055 298.17578 A 49.48535 31.06794 64.054884 0 1 387.35547 232.70898 A 49.48535 31.06794 64.054884 0 1 396.20508 224.30859 z M 337.92188 322.125 L 337.81445 322.17773 A 49.48535 31.06794 64.054884 0 1 337.92969 322.13477 L 337.92188 322.125 z M 337.35156 322.40234 L 319.70898 330.91016 L 319.71484 330.91992 A 49.48535 31.06794 64.054884 0 0 315.02148 333.9043 L 315.01953 333.90625 A 49.48535 31.06794 64.054884 0 0 314.50977 334.35547 A 49.48535 31.06794 64.054884 0 0 314.39648 334.46289 A 49.48535 31.06794 64.054884 0 0 310.27734 339.5918 A 49.48535 31.06794 64.054884 0 0 323.23242 405.05664 A 49.48535 31.06794 64.054884 0 0 362.07227 420.33789 L 362.07812 420.3457 L 362.18945 420.29102 A 49.48535 31.06794 64.054884 0 0 362.25391 420.26172 L 380.28906 411.56055 L 380.2832 411.55273 A 49.48535 31.06794 64.054884 0 1 341.44336 396.27344 A 49.48535 31.06794 64.054884 0 1 328.48633 330.80859 A 49.48535 31.06794 64.054884 0 1 337.35156 322.40234 z "
     style="fill:#000000;stroke-width:2.61543;stroke-miterlimit:0"
     id="path1211" />
</svg>

<svg version="1.1" viewBox="0 0 500 500" xmlns="http://www.w3.org/2000/svg">
 <path d="m249.54 0a250.06 250.06 0 0 0-249.54 250.06 250.06 250.06 0 0 0 172.2 237.63l-149.46-176.54 115.85-193.39 137.65-66.387 201.14 237.6-108.49 181.11a250.06 250.06 0 0 0 131.23-220.02 250.06 250.06 0 0 0-250.06-250.06 250.06 250.06 0 0 0-0.52149 0zm45.191 103.9-0.08789 0.04883a49.485 31.068 64.055 0 1 0.09765-0.03907l-0.00976-0.00976zm-0.56445 0.28125-17.643 8.5078 0.00781 0.01172a49.485 31.068 64.055 0 0-4.6934 2.9863l0.00195 0.00195a49.485 31.068 64.055 0 0-0.51172 0.44922 49.485 31.068 64.055 0 0-0.11328 0.10742l-0.00586-0.00781a49.485 31.068 64.055 0 0-4.1172 5.1309 49.485 31.068 64.055 0 0 12.957 65.465 49.485 31.068 64.055 0 0 38.838 15.279l0.00781 0.00976 0.11133-0.05468a49.485 31.068 64.055 0 0 0.0625-0.02735l18.037-8.7012-0.00781-0.00977a49.485 31.068 64.055 0 1-38.84-15.277 49.485 31.068 64.055 0 1-12.957-65.467 49.485 31.068 64.055 0 1 8.8652-8.4043zm-58.297 97.818-0.07812 0.04101h0.0039a49.485 31.068 64.055 0 1 0.08203-0.03125l-0.00781-0.00976zm-0.60742 0.29492-17.602 8.4902 0.00781 0.01172a49.485 31.068 64.055 0 0-4.6914 2.9863 49.485 31.068 64.055 0 1-0.00195 0 49.485 31.068 64.055 0 0-0.50977 0.45117 49.485 31.068 64.055 0 0-0.11132 0.10742l-0.00586-0.00586a49.485 31.068 64.055 0 0-4.1191 5.127 49.485 31.068 64.055 0 0 12.955 65.467 49.485 31.068 64.055 0 0 38.84 15.279l0.00781 0.00977 0.10937-0.05664a49.485 31.068 64.055 0 0 0.06446-0.02735l18.037-8.6992-0.00781-0.00976a49.485 31.068 64.055 0 1-38.842-15.279 49.485 31.068 64.055 0 1-12.955-65.467 49.485 31.068 64.055 0 1 8.8242-8.3848zm161.53 21.736-0.11328 0.05664a49.485 31.068 64.055 0 1 0.12109-0.04688l-0.00781-0.00976zm-0.58203 0.27929-17.629 8.502 0.00586 0.00976a49.485 31.068 64.055 0 0-4.6894 2.9844l-0.00781 0.00586 0.00195-0.00586a49.485 31.068 64.055 0 0-0.51367 0.45117 49.485 31.068 64.055 0 0-0.11133 0.10547 49.485 31.068 64.055 0 0-4.1172 5.1309 49.485 31.068 64.055 0 0 12.955 65.465 49.485 31.068 64.055 0 0 38.84 15.279l0.00586 0.00976 0.11328-0.05468a49.485 31.068 64.055 0 0 0.0625-0.0293l18.037-8.7012-0.00781-0.00782a49.485 31.068 64.055 0 1-38.84-15.277 49.485 31.068 64.055 0 1-12.955-65.467 49.485 31.068 64.055 0 1 8.8496-8.4004zm-58.283 97.816-0.10743 0.05273a49.485 31.068 64.055 0 1 0.11524-0.04296l-0.00781-0.00977zm-0.57032 0.27734-17.643 8.5078 0.00586 0.00976a49.485 31.068 64.055 0 0-4.6934 2.9844l-0.00195 0.00195a49.485 31.068 64.055 0 0-0.50976 0.44922 49.485 31.068 64.055 0 0-0.11329 0.10742 49.485 31.068 64.055 0 0-4.1191 5.1289 49.485 31.068 64.055 0 0 12.955 65.465 49.485 31.068 64.055 0 0 38.84 15.281l0.00585 0.00781 0.11133-0.05468a49.485 31.068 64.055 0 0 0.06446-0.0293l18.035-8.7012-0.00586-0.00782a49.485 31.068 64.055 0 1-38.84-15.279 49.485 31.068 64.055 0 1-12.957-65.465 49.485 31.068 64.055 0 1 8.8652-8.4062z" />
</svg>
